X: 123
T: No_58_Song_to_Cure_an_Injury_by_a_Horse.krn
N: Derived from No_58_Song_to_Cure_an_Injury_by_a_Horse.krn
%%abc-version 2.0
%%abcx-abcm2ps-target-version 5.9.1 (29 Sep 2008)
%%abc-creator hum2abc beta
%%abcx-conversion-date 2019/03/15 08:37:56
%%humdrum-veritas 4170152493
%%humdrum-veritas-data 2348369861
%%linebreak <none>
%%barnumbers 0
L: 1/8
M: 2/4
K: Db clef=bass
[K:clef=bass][M:2/4]A,A,A,2 | 
EEE2 | 
D2D2 | 
B,A,A,2 | 
EEE2 | 
EED2 | 
B,2B,2 | 
A,2A,F, | 
B,B,B,2 | 
A,A,A,2 | 
F,E, E, z | 
D2DB, | 
D2D2 | 
B,3A, | 
B,B,B,2 | 
A,A,A,2 | 
F,E, E, z | 
A,2B,2 | 
B,2B,F, | 
A,4 ||  
[M:3/4]F,2E, zA,2 | 
A,4A,2 | 
A,6 |]  



